korla/scalable/actions/scalable/fcitx-sayura.svg

<svg xmlns="http://www.w3.org/2000/svg" width="16" height="16" version="1.1">
 <defs>
  <style id="current-color-scheme" type="text/css">
   .ColorScheme-Text { color:#5c616c; } .ColorScheme-Highlight { color:#5294e2; }
  </style>
 </defs>
 <path style="fill:currentColor" class="ColorScheme-Text" d="M 2,0 C 0.892,0 0,0.8919999 0,2 v 12 c 0,1.108 0.892,2 2,2 h 12 c 1.108,0 2,-0.892 2,-2 V 2 C 16,0.8919999 15.108,0 14,0 Z m 8.798828,2.0566406 0.873047,0.6972656 c -0.03171,0.052853 -0.05894,0.1002955 -0.08008,0.1425782 -0.01057,0.042282 -0.01563,0.1068411 -0.01563,0.1914062 0,0.1162765 0.03734,0.246543 0.111328,0.3945313 0.511832,0.3927452 0.816737,0.8608701 1.144531,1.3652343 0.08689,0.1862608 0.186102,0.3698308 0.201172,0.5664068 0.03474,0.453205 -0.147382,0.83603 -0.443359,1.142578 -0.295977,0.306547 -1.120582,0.458984 -1.871094,0.458984 -0.200841,0 -0.41083,-0.02722 -0.632812,-0.08008 v 3.703125 c 0.19027,-0.05285 0.374987,-0.120513 0.554687,-0.205078 0.190271,-0.08456 0.385097,-0.179451 0.585937,-0.285156 l 0.41211,1.0625 c -0.253694,0.116275 -0.511126,0.221271 -0.775391,0.316406 -0.253695,0.08456 -0.513079,0.159233 -0.777343,0.222656 V 15 H 8.974602 v -3.060547 c -0.306547,0.04228 -0.912203,0.06951 -1.21875,0.08008 -0.295977,0.02114 -0.582586,0.03125 -0.857421,0.03125 -0.9830656,0 -1.8389889,-0.142328 -2.5683599,-0.427734 C 3.6007073,11.32707 3.0294406,10.893078 2.6171875,10.322266 2.2155049,9.751454 2.015625,8.938249 2.015625,8.082031 2.044127,7.485828 2.2457629,7.033493 2.5429688,6.652344 3.1454851,5.888085 3.861989,5.520377 4.6796875,5.214844 5.0285171,5.119714 5.4352845,5.055149 5.9003906,5.023438 6.376067,4.981155 6.947334,4.960937 7.613281,4.960937 H 8.974609 C 8.942897,4.4641196 8.785406,3.69935 8.5,3.4667969 8.225165,3.2342439 7.870895,3.1191406 7.4375,3.1191406 c -0.412253,0 -0.724135,0.079722 -0.935547,0.2382813 C 6.290541,3.5054102 6.185547,3.7103446 6.185547,3.9746094 v 0.1269531 c 0.01057,0.042283 0.01563,0.079617 0.01563,0.1113281 L 5.0742188,4.3554688 C 5.0530774,4.2603335 5.0429688,4.1705022 5.0429688,4.0859375 V 3.8632812 c 0,-0.5813826 0.2068875,-1.025484 0.6191406,-1.3320312 C 6.074362,2.2247028 6.638622,2.0722656 7.357422,2.0722656 c 1.099342,0 1.86038,0.4441014 2.283203,1.3320313 0.285406,-0.4862473 0.671956,-0.9354032 1.158203,-1.3476563 z m -0.0957,1.6171875 C 10.43886,3.9909459 10.271261,4.3028278 10.197266,4.609375 10.123276,4.9159223 10.085937,4.8495843 10.085938,5.208984 V 5.90625 c 0.105705,0.02114 0.200591,0.0363 0.285156,0.04687 0.09513,0.01057 0.190021,0.01563 0.285156,0.01563 0.34883,0 0.89188,-0.05755 1.029297,-0.173828 C 11.817952,5.610413 11.854961,5.458429 11.84375,5.318359 11.79365,5.042694 11.681705,4.8182259 11.539062,4.6054688 11.320866,4.2165701 10.976307,3.9477862 10.703125,3.6738281 Z M 7.724609,6.007813 C 6.984668,6.007615 6.391231,6.028033 5.9472656,6.070313 5.5138714,6.112593 5.159601,6.182208 4.8847656,6.277344 4.6205007,6.361904 4.3832869,6.466903 4.171875,6.59375 3.5844726,7.065271 3.3243855,7.480236 3.2695312,7.931641 3.2475872,8.235103 3.1858262,8.494228 3.2304692,8.71875 c 0.2014842,1.013347 0.7787534,1.358949 1.5449218,1.826172 0.5602415,0.253695 1.309217,0.378906 2.25,0.378906 0.285406,0 0.566961,-0.0051 0.841797,-0.01563 0.274836,-0.01057 0.843156,-0.03079 1.107421,-0.0625 V 6.007813 Z"/>
</svg>

<svg xmlns="http://www.w3.org/2000/svg" width="16" height="16" version="1.1">
 <defs>
  <style id="current-color-scheme" type="text/css">
   .ColorScheme-Text { color:#444444; } .ColorScheme-Highlight { color:#5294e2; }
  </style>
 </defs>
 <path style="fill:currentColor" class="ColorScheme-Text" d="M 2,0 C 0.892,0 0,0.892 0,2 V 14 C 0,15.108 0.892,16 2,16 H 14 C 15.108,16 16,15.108 16,14 V 2 C 16,0.892 15.108,0 14,0 Z M 10.799,2.0566 11.672,2.7539 C 11.64,2.8068 11.613,2.8542 11.592,2.8965 11.581,2.9388 11.576,3.0033 11.576,3.0879 11.576,3.2042 11.614,3.3344 11.688,3.4824 12.2,3.8752 12.504,4.3433 12.832,4.8477 12.919,5.0339 13.018,5.2175 13.033,5.4141 13.068,5.8673 12.886,6.2501 12.59,6.5566 12.294,6.8632 11.469,7.0156 10.719,7.0156 10.518,7.0156 10.222,6.9884 10,6.9355 V 10.639 C 10.19,10.586 10.461,10.518 10.641,10.434 10.831,10.349 11.026,10.254 11.227,10.148 L 11.639,11.211 C 11.385,11.327 11.128,11.432 10.863,11.527 10.61,11.612 10.264,11.687 10,11.75 V 15 H 9 V 11.939 C 8.6935,11.982 7.1733,12.051 6.8984,12.051 5.9154,12.051 5.0594,11.908 4.3301,11.623 3.6007,11.327 3.0294,10.893 2.6172,10.322 2.2155,9.7524 2,8.9382 2,8.082 2.0285,7.4858 2.2458,7.0335 2.543,6.6523 3.1455,5.8881 3.862,5.5204 4.6797,5.2148 5.0285,5.1197 5.4353,5.0942 5.9004,5.0625 6.3761,5.0203 6.9473,5 7.6133,5 H 9 C 8.9683,4.5032 8.7854,3.6993 8.5,3.4668 8.2252,3.2342 7.8709,3.1191 7.4375,3.1191 7.0252,3.1191 6.7134,3.1989 6.502,3.3574 6.2905,3.5054 6.1855,3.7103 6.1855,3.9746 6.1855,3.9746 6.2012,4.1812 6.2012,4.2129 L 5.0742,4.3555 C 5.0531,4.2603 5.043,3.8633 5.043,3.8633 5.043,3.2819 5.2499,2.8378 5.6621,2.5312 6.0744,2.2247 6.6386,2.0723 7.3574,2.0723 8.4568,2.0723 9.2178,2.5164 9.6406,3.4043 9.926,2.918 10.313,2.4689 10.799,2.0566 Z M 10.703,3.6738 C 10.439,3.9909 10.185,4.3028 10.111,4.6094 10.037,4.9159 10,4.8496 10,5.209 V 5.9062 C 10.17,5.9402 10.44,5.9688 10.656,5.9688 11.005,5.9688 11.548,5.9112 11.686,5.7949 11.818,5.6104 11.855,5.4584 11.844,5.3184 11.794,5.0427 11.682,4.8182 11.539,4.6055 11.321,4.2166 10.976,3.9478 10.703,3.6738 Z M 7.7246,6 C 6.9847,5.9998 6.3912,6.0202 5.9473,6.0625 5.5139,6.1048 5.1596,6.1744 4.8848,6.2695 4.6205,6.3541 4.3833,6.4668 4.1719,6.5938 3.5845,7.0653 3.3244,7.4802 3.2695,7.9316 3.2476,8.2351 3.1858,8.4943 3.2305,8.7188 3.432,9.7322 4.0092,10.078 4.7754,10.545 5.3356,10.799 6.0846,10.924 7.0254,10.924 7.3108,10.924 8.7357,10.877 9,10.846 V 6 Z"/>
</svg>
